X:1
T:Choix de chansons. Tome 1
T:Qui par fortune
T:Qui par fortune
T:Jean Benjamin de La Borde
C:Jean Benjamin de La Borde
Z:M. de Montcrif
%%score 1 { 2 | ( 3 4 ) }
L:1/8
Q:1/4=155
M:6/8
K:Bb
V:1 treble nm="Ténor" snm="T."
V:2 treble nm="Clavecin" snm="Cla."
V:3 bass 
V:4 bass 
V:1
|:"^Allegretto" G A2 c |{/c} B2 A G2 ^F | G2 d{/e} d2 G | A2 c (B2{/B} A) | G2 d g2 g | f2 c e2 e | %6
w: Qui par for-|tu- ne, trou- ve-|ra Nym- phes dans|la prai- rie,- *|cel- le qui tant|plus lui plai- ra,|
w: Si quel- qu'un|dit, a- vec ser-|ment Je don- ne-|rais ma vie,- *|Pour ê- tre ai-|mé, rien qu'un mo-|
w: É- glé vint|aux jeux de Cé-|rès, Et fut d'a-|bord sui- vie;- *|É- glé re- vint|le jour d'a- près,-|
w: L'au- tre ma-|tin, sous ces buis-|sons, U- ne Nym-|phe jo- lie,- *|Me dit: j'ai- me|tant vos chan- sons:-|
w: Je lui sait|maint a- do- ra-|teur, et n'en ai|ja- lou- sie;- *|A- mour a mis|tout mon bon- heur-|
 d2 f{/g} f2 d | c2 e (d2{/d} c) | B2 d{/e} d2 B | c2 e{/f} e2 c | d2 g ^f2 g | ^f2 g (=f2{/f} e) | %12
w: te- nez, c'est bi-|en ma mi- *|e. Si quel- qu'u-|ne vient à dan-|ser, et d'u- ne|grâ- ce telle- *|
w: ment; Te- nez, c'est|de ma mi- *|e. Si quel- qu'au-|tre suit, sans es-|poir, La Nym- phe|qu'il a- dore;- *|
w: _ On ne vit|que ma mi- *|e. Si quel- que|Nym- phe a le cré-|dit D'ê- tre tou-|jours nou- velle,- *|
w: _ Je dis, c'est|pour ma mi- *|e; Pour cé- lé-|brer ses doux at-|traits Fait on chan-|son nou- velle.- *|
w: _ Dans ce- lui|de ma mi- *|e: Que ser- vi-|rait de m'a- lar-|mer? La chose est|na- tu- relle;- *|
 d3 e d c | B2 A G2 ^F | D2 d g2 d | G2 c (B2{/B} A) | G2 :| %17
w: qu'el- le ne fait|les fle- urs ver-|ser, Eh bien, c'est|en- core el- *|le.|
w: Con- tent du char-|me de la voi-|r; Eh bien! c'est|elle en- co- *|re.|
w: À vos yeux com-|me à votre es-|prit, Te- nez, c'est|tou- jours el- *|le.|
w: En y son- geant,|l'ins- tant d'a- près,-|_ On chante en-|core pour el- *|le.|
w: An- nette est fai-|te pour char- mer.-|_ Et nous pour|n'ai- mer qu'el- *|le.|
V:2
|: G [CA]2 [Ec] | [DB]2 [CA] G2 ^F | G2 z z2 [DG] | z2 [CEG] [DG]2 [C^F] | [DG]2 z z2 [DG] | %5
 [CF]2 z z2 [CF] | [DF]2 z z BD | z2 [Ge] [Fd]2 [Ec] | [DB]2 z z BD | z AC z cE | %10
 [DB]2 [DB] [Ec]2 [DB] | [Ec]2 [DB] [CA]3 | G3 z2 z | [EG]2 [EG] [EG]2 [EG] | [D^FA]3 z2 [DG] | %15
 z2 [EG] G2 [^FAc] | [GBd]2 :| %17
V:3
|: B, G,3 | G,3 G,3 | G,2 z B,,2 z | C,2 z D,2 D,, | G,,2 z z2 G, | A,2 z z2 [F,A,] | B,2 z D,2 z | %7
 E,2 z F,2 F,, | B,,3 B,3 | F,3 C3 | G,2 G, G,2 G, | G,2 G, G,3 | G,3 z2 z | C2 C C2 C | C3 B,3 | %15
 C3[I:staff -1] D3 |[I:staff +1] G,2 :| %17
V:4
|: x4 | x3 B,2 A, | B,2 x3 B, | x3 B,2 A, | B,2 x3 B, | x6 | x6 | x6 | x6 | x6 | x6 | x6 | B,3 x3 | %13
 x6 | x6 | x6 | x2 :| %17

